img/image/design/grad-16.svg

<svg width="1837" height="1523" fill="none" xmlns="http://www.w3.org/2000/svg"><g opacity=".3" filter="url(#a)"><path fill-rule="evenodd" clip-rule="evenodd" d="M1713.76 1069.72c-29.72 93.36-97.73 164.77-159.34 240.91-53.08 65.59-109.64 124.07-177.04 174.79-75.07 56.51-145.87 135.14-239.72 138.88-94.14 3.75-173.207-66.08-250.985-119.32-73.129-50.07-125.198-119.05-188.236-181.36-86.277-85.3-235.173-133.69-252.05-253.9-16.316-116.211 102.12-206.41 174.462-298.745 64.115-81.835 135.68-154.317 223.734-209.5 90.419-56.666 187.545-129.911 293.075-114.387 105.37 15.5 150.17 150.032 247.25 193.87 113.17 51.108 281.85-19.385 357.47 79.205 72.35 94.332 7.45 236.237-28.62 349.557Z" fill="url(#b)" fill-opacity=".5"/></g><defs><linearGradient id="b" x1="1775.14" y1="1034.71" x2="444.864" y2="1034.71" gradientUnits="userSpaceOnUse"><stop stop-color="#FF80E6"/><stop offset="1" stop-color="#FFA6ED" stop-opacity="0"/></linearGradient><filter id="a" x=".864" y=".976" width="2218.27" height="2067.47" filterUnits="userSpaceOnUse" color-interpolation-filters="sRGB"><feFlood flood-opacity="0" result="BackgroundImageFix"/><feBlend in="SourceGraphic" in2="BackgroundImageFix" result="shape"/><feGaussianBlur stdDeviation="222" result="effect1_foregroundBlur_16656_180"/></filter></defs></svg>

<svg width="1837" height="1523" viewBox="0 0 1837 1523" fill="none" xmlns="http://www.w3.org/2000/svg">
<g opacity="0.3" filter="url(#filter0_f_16656_180)">
<path fill-rule="evenodd" clip-rule="evenodd" d="M1713.76 1069.72C1684.04 1163.08 1616.03 1234.49 1554.42 1310.63C1501.34 1376.22 1444.78 1434.7 1377.38 1485.42C1302.31 1541.93 1231.51 1620.56 1137.66 1624.3C1043.52 1628.05 964.453 1558.22 886.675 1504.98C813.546 1454.91 761.477 1385.93 698.439 1323.62C612.162 1238.32 463.266 1189.93 446.389 1069.72C430.073 953.509 548.509 863.31 620.851 770.975C684.966 689.14 756.531 616.658 844.585 561.475C935.004 504.809 1032.13 431.564 1137.66 447.088C1243.03 462.588 1287.83 597.12 1384.91 640.958C1498.08 692.066 1666.76 621.573 1742.38 720.163C1814.73 814.495 1749.83 956.4 1713.76 1069.72Z" fill="url(#paint0_linear_16656_180)" fill-opacity="0.5"/>
</g>
<defs>
<filter id="filter0_f_16656_180" x="0.864258" y="0.975586" width="2218.27" height="2067.47" filterUnits="userSpaceOnUse" color-interpolation-filters="sRGB">
<feFlood flood-opacity="0" result="BackgroundImageFix"/>
<feBlend mode="normal" in="SourceGraphic" in2="BackgroundImageFix" result="shape"/>
<feGaussianBlur stdDeviation="222" result="effect1_foregroundBlur_16656_180"/>
</filter>
<linearGradient id="paint0_linear_16656_180" x1="1775.14" y1="1034.71" x2="444.864" y2="1034.71" gradientUnits="userSpaceOnUse">
<stop stop-color="#FF80E6"/>
<stop offset="1" stop-color="#FFA6ED" stop-opacity="0"/>
</linearGradient>
</defs>
</svg>
